X: 1
T: Pet Of The Pipers
S: From the playing of Joe Hutton
M: 6/8
L: 1/8
R: jig
K: Gmaj
D|G3 BAG|dBG gdB|G3 BAG|FED cBA|
G3 BAG|dBG g2d|efg dBd|cBA G2:|
|:d|gfg efg|eag fed|gfg efg|agf g2G|
gfe dBG|edc BAG|efg dBd|cBA G2:|
